fs/arrow_sort_28_regular.svg

<svg viewBox="0 0 28 28" fill="none" xmlns="http://www.w3.org/2000/svg" height="1em" width="1em">
  <path d="M2.21979 9.96703L7.96979 4.21955L8.055 4.146L8.11269 4.1076L8.18504 4.06911L8.28979 4.02992L8.39481 4.00737L8.44703 4.00185L8.5 4L8.55712 4.00214L8.6491 4.01489L8.75557 4.0447L8.84124 4.0819L8.89515 4.11242L8.9583 4.15627L9.03021 4.21955L14.7802 9.96703C15.0732 10.2599 15.0733 10.7347 14.7804 11.0277C14.5142 11.294 14.0976 11.3183 13.8039 11.1005L13.7198 11.0279L9.24961 6.55955L9.25 23.25C9.25 23.6642 8.91421 24 8.5 24C8.1203 24 7.80651 23.7178 7.75685 23.3518L7.75 23.25L7.74961 6.55955L3.28021 11.0279C3.01389 11.2941 2.59722 11.3182 2.30366 11.1003L2.21955 11.0277C1.95335 10.7614 1.92923 10.3447 2.14715 10.0511L2.21979 9.96703ZM19.5 4C19.8797 4 20.1935 4.28215 20.2432 4.64823L20.25 4.75V21.437L24.7198 16.9696L24.8039 16.897C25.0976 16.6792 25.5142 16.7035 25.7804 16.9698C26.0467 17.2361 26.0708 17.6528 25.8528 17.9463L25.7802 18.0304L20.0525 23.7572C19.9154 23.9065 19.7186 24 19.5 24C19.3178 24 19.1508 23.935 19.0209 23.827L18.9475 23.7572L13.2198 18.0304L13.1472 17.9463C12.9534 17.6854 12.951 17.3272 13.1398 17.0638L13.2196 16.9698L13.3037 16.8972C13.5646 16.7034 13.9228 16.701 14.1862 16.8898L14.2802 16.9696L18.75 21.439V4.75L18.7568 4.64823C18.8065 4.28215 19.1203 4 19.5 4Z" fill="#212121"/>
</svg>

<svg viewBox="0 0 28 28" fill="none" xmlns="http://www.w3.org/2000/svg" height="1em" width="1em">
  <path d="M2.22 9.967 7.97 4.22l.085-.074.058-.038.072-.039.105-.04.105-.022.052-.005L8.5 4l.057.002.092.013.107.03.085.037.054.03.063.044.072.064 5.75 5.747a.75.75 0 0 1-.976 1.133l-.084-.072L9.25 6.56v16.69a.75.75 0 0 1-1.493.102l-.007-.102V6.56l-4.47 4.468a.75.75 0 0 1-.976.072l-.084-.072a.75.75 0 0 1-.073-.977l.073-.084ZM19.5 4a.75.75 0 0 1 .743.648l.007.102v16.687l4.47-4.467.084-.073a.75.75 0 0 1 1.049 1.05l-.073.083-5.728 5.727a.748.748 0 0 1-1.031.07l-.073-.07-5.728-5.727-.073-.084a.75.75 0 0 1-.007-.882l.08-.094.084-.073a.75.75 0 0 1 .882-.007l.094.08 4.47 4.469V4.75l.007-.102A.75.75 0 0 1 19.5 4Z" fill="#212121"/>
</svg>
